X:445
T:the Iron Bridge
A:Wyresdale, Lancashire
B:H.S.J. Jackson, 1823
L:1/8
M:C|
O:England
Z:Richard Robinson 
%%TUNEURL: http://www.leeds.ac.uk/music/Info/RRTuneBk/gettune/00000e2c.html
%%ID:00000e2c
K:Bb
DFBF EGcd | ecdB Accd | DFBF EGce | dBAc dBB2 ::
dBdB e>fe>d | c>dcB Accd | DFBd GBdg | f>gfe dBB :|
%page:52
